X:1
T:Spanish Dance
T:Spanish Dance
T:Swan Lake, Piano Arrangement for 3 hands
T:Hinci
C:Hinci
%%score { 1 | 2 | 3 } 4 5
L:1/8
Q:1/4=120
M:3/4
K:A
V:1 treble nm="Piano" snm="Pno."
V:2 bass 
V:3 treble 
V:4 perc stafflines=1 nm="Castanets" snm="Cst."
K:none
I:percmap E B 85 normal
V:5 perc stafflines=1 nm="Tambourine" snm="Tamb."
K:none
I:percmap E B 54 normal
V:1
"^Allegro non troppo."!ff! [fac'f']!f!!>(! .[CF]/.[CF]/ .[CF].[CF] .[CF].[CF] | %1
 .[CF].[CF]/!>)!!mp!.[CF]/ .[CF].[CF] .[CF]!mf!c | f2- f.a/.g/ .f.g | c2- c.f/.e/ .d.g | %4
 c2- c.d/.c/ .B.c/.B/ | A2- A.B/.A/ .G.A/.G/ |!mf! .F.[CF]/.[CF]/ .[CF].[CF] .[B,F].[DF] | %7
!>(! .[CF].[CF]/.[CF]/ .[CF].[CF] .[B,F]!>)!.[DF] |!p! .[CF].[CF]/.[CF]/ .[CF].[CF] .[CF].[CF] | %9
 .[CF].[CF]/.[CF]/ .[CF].[CF] .[CF]!mf!c | f2- f.a/.g/ .f.g | c2- c.f/.e/ .d.g | %12
 c2- c.d/.c/ .B.c/.B/ | A2- A.B/.A/ .G.A/.G/ |!mf! .F.[CF]/.[CF]/ .[CF].[DF] .[DF].[DE] | %15
 .[CE].[CE]/.[CE]/!>(! .[CE].[DF] .[DF].[DE]!>)! |!mp! [CE][CE]/[CE]/ [CE][CE] [CE][CE] | %17
 [CE][CE]/[CE]/ [CE][CE] [CE]!f![Ee] | %18
!f! [cea] z z3/4!mf! ([ce]/<[Af]/)([eg]/4 [ca]/>)([ac']/[gb]/>)([fa]/ | %19
 [eg]/>)([fa]/[eg]/>)([Bd]/ [df]2) z [B,B] | %20
!f! [df] z z3/4!mf! ([^^F^A]/<[GB]/)([Ac]/4 [Bd]/>)([fa]/[eg]/>)([df]/ | %21
 [ce]/>)([df]/[eg]/>)([fa]/ [ce]2) z2 | ([Ac]2 [Ac]2) [GB]/>([Ac]/[Bd]/>)([ce]/ | %23
 [df]2) ([gb][e'g']) ([gb][e'g']) | ([GB]2 [GB]2) [FA]/>([GB]/[Ac]/>)([Bd]/ | %25
 [ce]2) ([fa][c'e']) ([fa][c'e']) | z2 z2 z!f! [Ee] | %27
!f! [cea] z z3/4!mf! ([ce]/<[Af]/)([eg]/4 [ca]/>)([ac']/[gb]/>)([fa]/ | %28
 [eg]/>)([fa]/[eg]/>)([Bd]/ [df]2) z [B,B] | %29
!f! [df] z z3/4!mf! ([^^F^A]/<[GB]/)([Ac]/4 [Bd]/>)([fa]/[eg]/>)([df]/ | %30
 [ce]/>)([df]/[eg]/>)([fa]/ [ce]2) z2 | ([Ac]2 [Ac]2) [GB]/>([Ac]/[Bd]/>)([ce]/ | %32
 [df]2) ([gb][e'g']) ([gb][e'g']) | ([GB]2 [GB]2) [FA]/>([GB]/[Ac]/>)([Bd]/ | %34
 [ce]2) ([fa][c'e']) ([fa][c'e']) | z2 ([ce][ac']) ([ce][ac']) | z2 ([Bc][bc']) ([Bc][bc']) | %37
!mf! !>!.[CF]!mf!.F/.[CF]/ z .[CF]!>(! .[CF].[CF] | %38
 .[CF]!>)!!mp!.[CF]/.[CF]/ .[CF].[CF] .[CF]!f![cc'] | [ff']2- [ff'].[aa']/.[gg']/ .[ff'].[gg'] | %40
 [cc']2- [cc'].[ff']/.[ee']/ .[dd'].[gg'] | [cc']2- [cc'].[dd']/.[cc']/ .[Bb].[cc']/.[Bb]/ | %42
 [Aa]2- [Aa].[Bb]/.[Aa]/ .[Gg].[Aa]/.[Gg]/ |!mf! .[Ff].[CF]/.[CF]/ .[CF].[CF] .[B,F].[DF] | %44
!>(! .[CF].[CF]/.[CF]/ .[CF].[CF] .[B,F]!>)!.[DF] |!p! .[CF].[CF]/.[CF]/ .[CF].[CF] .[CF].[CF] | %46
 .[CF].[CF]/.[CF]/ .[CF].[CF] .[CF]!f![cc'] | [ff']2- [ff'].[aa']/.[gg']/ .[ff'].[gg'] | %48
 [cc']2- [cc'].[ff']/.[ee']/ .[dd'].[gg'] | [cc']2- [cc'].[dd']/.[cc']/ .[Bb].[cc']/.[Bb]/ | %50
 [Aa]2- [Aa].[Bb]/.[Aa]/ .[Gg].[Aa]/.[Gg]/ |[K:F#] [FAf] z z2 z2 | z6 | %53
 z!mp! [FA] ([Ac]2 [GB][FA]) | ([Ac]2 [GB][FA]) [GB]2 | z [GB] ([Bd]2 [Ac][^^G^B]) | %56
 ([Bd]2 [Ac][^^G^B]) [Ac]2 | z [Ac] ([df]2 [ce][Bd]) | ([Ac]2 [GB][FA]) [GB]2 | %59
 z [GB] ([ce]2 [Bd][Ac]) | ([GB]2 [FA][E^^G]) [FA]2 | z!mf! [fa] ([ac']2 [gb][fa]) | %62
 ([ac']2 [gb][fa]) [gb]2 | z [gb] ([bd']2 [ac'][^^g^b]) | ([bd']2 [ac'][^^g^b]) [ac']2 | %65
 z [ac'] ([f'a']2 [e'g'][d'f']) | [c'e'] [e'g']2 ([gb]2 [e'g']) | z [gb] ([e'g']2 [d'f'][c'e']) | %68
 [bd'] [d'f']2 ([fa]2 [ac']) | z!f! [A,FA] ([CAc]2 [B,GB][A,FA]) | ([CAc]2 [B,GB][A,FA]) [B,GB]2 | %71
 z [B,GB] ([DBd]2 [CAc][^B,^^G^B]) | ([DBd]2 [CAc][^B,^^G^B]) [CAc]2 | %73
 z [CAc] ([Fdf]2 [Ece][DBd]) | ([CAc]2 [B,GB][A,FA]) [B,GB]2 | z [B,GB] ([Ece]2 [DBd][CAc]) | %76
 ([B,GB]2 [A,FA][^^G,E^^G]) [A,FA]2 | z [fa] ([ac']2 [gb][fa]) | ([ac']2 [gb][fa]) [gb]2 | %79
 z [gb] ([bd']2 [ac'][^^g^b]) | ([bd']2 [ac'][^^g^b]) [ac']2 | z [ac'] ([f'a']2 [e'g'][d'f']) | %82
 [c'e'] [e'g']2 ([gb]2 [e'g']) | z [gb] ([e'g']2 [d'f'][c'e']) | [bd'] [d'f']2 ([fa]2 [ac']) | %85
!ff! [fbd'f']!f!f/>f/ f/>f/f/>f/ f/>(g/f/>)g/ | %86
!f! a/>([cc']/[dd']/>)([ee']/ [ff']/>)(g/a/>)(b/ c'/>)(d'/e'/>)f'/ | %87
!ff! [fbd'f']!f!f/>f/ f/>f/f/>f/ f/>(g/f/>)g/ | %88
!f! a/>([cc']/[dd']/>)([ee']/ [ff']/>)(g/a/>)(b/ c'/>)(d'/e'/>)f'/ | %89
"^Piu mosso"!mf![Q:1/4=130]"^\n" .f/.f/.f/.f/ .f/.f/.f/.f/ .g/.f/.e/.d/ | %90
 .c/.c/.c/.c/ .c/.c/.c/.c/ .d/.e/.f/.g/ | .B/.B/.B/.B/ .B/.B/.B/.B/ .c/.d/.e/.g/ | %92
 z/ (c'/d'/e'/ f'/e'/d'/c'/ b/a/g/f/) |!mf! .f/.f/.f/.f/ .f/.f/.f/.f/ .g/.f/.e/.d/ | %94
 .c/.c/.c/.c/ .c/.c/.c/.c/ .d/.e/.f/.g/ | .B/.B/.B/.B/ .B/.B/.B/.B/ .c/.d/.e/.g/ | %96
 z/ (c'/d'/e'/ f'/e'/d'/c'/ b/a/g/f/) |!ff! [fb=d'f'][gd'f'] [ac'f'][gd'f'] [ac'f'][gd'f'] | %98
 [ac'f']/(c'/d'/e'/ f'/e'/d'/c'/ b/a/g/f/) | [fb=d'f'][gd'f'] [ac'f'][gd'f'] [ac'f'][gd'f'] | %100
 [ac'f']/(c'/d'/e'/ f'/e'/d'/c'/ b/a/g/f/) | [fb=d'f'][gd'f'] [ac'f'][gd'f'] [ac'f'][gd'f'] | %102
 [ac'f'][g=d'f'] [ac'f'][gd'f'] [ac'f'][gd'f'] | !/![ac'f']6 | %104
[Q:1/4=110] [ac'f'][Q:1/4=90][ac'f'] [F,F]4 |] %105
V:2
 [F,,F,].[F,A,]/.[F,A,]/ .[F,A,].[F,A,] .[F,A,].[F,A,] | %1
 .[F,A,].[F,A,]/.[F,A,]/ .[F,A,].[F,A,] .[F,A,].[F,A,] | %2
!p! .[F,A,C].[F,A,C]/.[F,A,C]/ .[F,A,C].[F,A,C] .[F,B,D].[F,B,D] | %3
 .[F,A,C].[F,A,C]/.[F,A,C]/ .[F,A,C].[F,A,C] .[F,B,D].[F,B,D] | %4
 .[F,A,C].[F,A,C]/.[F,A,C]/ .[F,A,C].[F,A,C] .[F,B,D].[F,B,D] | %5
 .[F,A,C].[F,A,C]/.[F,A,C]/ .[F,A,C].[F,A,C] .[F,B,D].[F,B,D] | %6
 .[F,A,].[F,A,]/.[F,A,]/ .[F,A,].[F,A,] .[D,G,].[B,,B,] | %7
 .[F,A,].[F,A,]/.[F,A,]/ .[F,A,].[F,A,] .[D,G,].[B,,B,] | %8
 .[F,A,].[F,A,]/.[F,A,]/ .[F,A,].[F,A,] .[F,A,].[F,A,] | %9
 .[F,A,].[F,A,]/.[F,A,]/ .[F,A,].[F,A,] .[F,A,].[F,A,] | %10
 .[F,A,C].[F,A,C]/.[F,A,C]/ .[F,A,C].[F,A,C] .[F,B,D].[F,B,D] | %11
 .[F,A,C].[F,A,C]/.[F,A,C]/ .[F,A,C].[F,A,C] .[F,B,D].[F,B,D] | %12
 .[F,A,C].[F,A,C]/.[F,A,C]/ .[F,A,C].[F,A,C] .[F,B,D].[F,B,D] | %13
 .[F,A,C].[F,A,C]/.[F,A,C]/ .[F,A,C].[F,A,C] .[F,B,D].[F,B,D] | %14
 .[F,A,].[F,A,]/.[F,A,]/ .[F,A,].[D,A,] .[B,,A,].[E,G,] | .A,.A,/.A,/ .A,.[D,A,] .[B,,A,].[E,G,] | %16
 [E,A,][E,A,]/[E,A,]/ .[E,A,].[E,A,] .[E,A,].[E,A,] | %17
 [E,A,][E,A,]/[E,A,]/ .[E,A,].[E,A,] .[E,A,].[E,A,] | %18
 [E,A,]!mp![E,A,]/[E,A,]/ .[E,A,].[E,A,] .[E,A,].[E,A,] | %19
 [E,B,][E,B,]/[E,B,]/ .[E,B,].[E,B,] .[E,B,].[E,B,] | %20
 [E,B,]!mp![E,B,]/[E,B,]/ .[E,B,].[E,B,] .[E,B,].[E,B,] | %21
 [E,A,][E,A,]/[E,A,]/ .[E,A,].[E,A,] .[E,A,].[E,A,] | %22
 [E,A,][E,A,]/[E,A,]/ .[E,A,].[E,A,] .[E,A,].[E,A,] | %23
 [E,B,][E,B,]/[E,B,]/ .[E,B,].[E,B,] .[E,B,].[E,B,] | %24
 [E,B,][E,B,]/[E,B,]/ .[E,B,].[E,B,] .[E,B,].[E,B,] | %25
 [E,A,][E,A,]/[E,A,]/ .[E,A,].[E,A,] .[E,A,].[E,A,] | %26
 [E,A,][E,A,]/[E,A,]/ .[E,A,].[E,A,] .[E,A,].[E,A,] | %27
 [E,A,]!mp![E,A,]/[E,A,]/ .[E,A,].[E,A,] .[E,A,].[E,A,] | %28
 [E,B,][E,B,]/[E,B,]/ .[E,B,].[E,B,] .[E,B,].[E,B,] | %29
 [E,B,]!mp![E,B,]/[E,B,]/ .[E,B,].[E,B,] .[E,B,].[E,B,] | %30
 [E,A,][E,A,]/[E,A,]/ .[E,A,].[E,A,] .[E,A,].[E,A,] | %31
 [E,A,][E,A,]/[E,A,]/ .[E,A,].[E,A,] .[E,A,].[E,A,] | %32
 [E,B,][E,B,]/[E,B,]/ .[E,B,].[E,B,] .[E,B,].[E,B,] | %33
 [E,B,][E,B,]/[E,B,]/ .[E,B,].[E,B,] .[E,B,].[E,B,] | %34
 [E,A,][E,A,]/[E,A,]/ .[E,A,].[E,A,] .[E,A,].[E,A,] | %35
 [E,A,][E,A,]/[E,A,]/ .[E,A,].[E,A,] .[E,A,].[E,A,] | %36
 [C,^E,B,][C,E,B,]/[C,E,B,]/ .[C,E,B,].[C,E,B,] .[C,E,B,].[C,E,B,] | %37
 !>!.[F,A,]!mf!.[F,A,]/.[F,A,]/ .[F,A,].[F,A,] .[F,A,].[F,A,] | %38
 .[F,A,].[F,A,]/.[F,A,]/ .[F,A,].[F,A,] .[F,A,].[F,A,] | %39
!p! .[F,A,C].[F,A,C]/.[F,A,C]/ .[F,A,C].[F,A,C] .[F,B,D].[F,B,D] | %40
 .[F,A,C].[F,A,C]/.[F,A,C]/ .[F,A,C].[F,A,C] .[F,B,D].[F,B,D] | %41
 .[F,A,C].[F,A,C]/.[F,A,C]/ .[F,A,C].[F,A,C] .[F,B,D].[F,B,D] | %42
 .[F,A,C].[F,A,C]/.[F,A,C]/ .[F,A,C].[F,A,C] .[F,B,D].[F,B,D] | %43
 .[F,A,].[F,A,]/.[F,A,]/ .[F,A,].[F,A,] .[D,G,].[B,,B,] | %44
 .[F,A,].[F,A,]/.[F,A,]/ .[F,A,].[F,A,] .[D,G,].[B,,B,] | %45
 .[F,A,].[F,A,]/.[F,A,]/ .[F,A,].[F,A,] .[F,A,].[F,A,] | %46
 .[F,A,].[F,A,]/.[F,A,]/ .[F,A,].[F,A,] .[F,A,].[F,A,] | %47
 .[F,A,C].[F,A,C]/.[F,A,C]/ .[F,A,C].[F,A,C] .[F,B,D].[F,B,D] | %48
 .[F,A,C].[F,A,C]/.[F,A,C]/ .[F,A,C].[F,A,C] .[F,B,D].[F,B,D] | %49
 .[F,A,C].[F,A,C]/.[F,A,C]/ .[F,A,C].[F,A,C] .[F,B,D].[F,B,D] | %50
 .[F,A,C].[F,A,C]/.[F,A,C]/ .[F,A,C].[F,A,C] .[F,B,D].[F,B,D] |[K:F#] [F,A,C].C/.C/ .C.C .C,.C | %52
 .F,.C/.C/ .C.C .C,.C | .F,.C/.C/ .C.C .C,.C | .E,.C/.C/ .C.C .C,.C | .E,.C/.C/ .C.C .C,.C | %56
 .F,.C/.C/ .C.C .C,.C | .F,.C/.C/ .C.C .C,.C | .E,.C/.C/ .C.C .C,.C | .E,.C/.C/ .C.C .C,.C | %60
 .F,.C/.C/ .C.C .C,.C |!mp! .F,.C/.C/ .C.C .C,.C | .F,.C/.C/ .C.C .C,.C | .E,.C/.C/ .C.C .C,.C | %64
 .E,.C/.C/ .C.C .C,.C | .F,.C/.C/ .C.C .C,.C | .F,.C/.C/ .C.C .C,.C | .E,.C/.C/ .C.C .C,.C | %68
 .E,.C/.C/ .C.C .C,.C |!mp! .F,.C/.C/ .C.C .C,.C | .F,.C/.C/ .C.C .C,.C | .E,.C/.C/ .C.C .C,.C | %72
 .E,.C/.C/ .C.C .C,.C | .F,.C/.C/ .C.C .C,.C | .F,.C/.C/ .C.C .C,.C | .E,.C/.C/ .C.C .C,.C | %76
 .E,.C/.C/ .C.C .C,.C |!mf! .F,.C/.C/ .C.C .C,.C | .F,.C/.C/ .C.C .C,.C | .E,.C/.C/ .C.C .C,.C | %80
 .E,.C/.C/ .C.C .C,.C | .F,.C/.C/ .C.C .C,.C | .F,.C/.C/ .C.C .C,.C | .E,.C/.C/ .C.C .C,.C | %84
 .E,.C/.C/ .C.C .C,.C | [B,,,B,,]F,- F,[F,A,F]- [F,A,F][F,A,F] | %86
 [C,A,C]!mf!.[A,CF] .[A,CF].[A,CF] .[A,CF].[A,CF] | [B,,,B,,]F,- F,[F,A,F]- [F,A,F][F,A,F] | %88
 [C,A,C]!mf!.[A,CF] .[A,CF].[A,CF] .[A,CF].[A,CF] |!mp! .B,,.[B,F] .B,,.[B,F] .B,,.[B,F] | %90
 .A,,.[CF] .A,,.[CF] .A,,.[CF] | .G,,.[DG] .G,,.[DG] .G,,.[DG] | %92
!f! [F,A,CF]/[I:staff -1](c/d/e/ f/e/d/c/ B/A/G/F/) | %93
!mp![I:staff +1] .B,,.[B,F] .B,,.[B,F] .B,,.[B,F] | .A,,.[CF] .A,,.[CF] .A,,.[CF] | %95
 .G,,.[DG] .G,,.[DG] .G,,.[DG] |!f! [F,A,CF]/[I:staff -1](c/d/e/ f/e/d/c/ B/A/G/F/) | %97
[I:staff +1] [B,,F,B,][B,,G,B,] [F,,F,A,][B,,G,B,] [F,,F,A,][B,,G,B,] | %98
 [F,,F,]/[I:staff -1](c/d/e/ f/e/d/c/ B/A/G/F/) | %99
[I:staff +1] [B,,F,B,][B,,G,B,] [F,,F,A,][B,,G,B,] [F,,F,A,][B,,G,B,] | %100
 [F,,F,]/[I:staff -1](c/d/e/ f/e/d/c/ B/A/G/F/) | %101
[I:staff +1] [B,,F,B,][B,,G,B,] [F,,F,A,][B,,G,B,] [F,,F,A,][B,,G,B,] | %102
 [F,,F,A,][B,,G,B,] [F,,F,A,][B,,G,B,] [F,,F,A,][B,,G,B,] | !/![F,,F,A,]6 | %104
 [F,,F,A,][F,,F,A,] !///-!F,,2 F,2 |] %105
V:3
 [CFA] z z2 z2 | z6 | z6 | z6 | z6 | z6 | z6 | z6 | z6 | z6 | %10
[K:bass] z3/4!mp! (C,/<^D,/)(^E,/4 F,/>)(G,/A,/>)(C/ D) z | %11
[K:treble] z3/4!mf! (C/<^D/)(^E/4 F/>)(G/A/>)(c/ d) z | %12
 z3/4!mf! (c/<^d/)(^e/4 f/>)(g/a/>)(c'/ f') z | z3/4!mf! (C/<^D/)(^E/4 F/>)(G/A/>)(c/ f) z | z6 | %15
 z6 | z6 | z6 | [CE] z z2!mf! [CE] z | [DE] z z2 [DE] z | [DE] z z2!mf! [DE] z | [CE] z z2 [CE] z | %22
 z6 | z6 | z6 | z6 | z6 | [CE] z z2!mf! [CE] z | [DE] z z2 [DE] z | [DE] z z2!mf! [DE] z | %30
 [CE] z z2 [CE] z | z6 | z6 | z6 | z6 | z6 | z6 |[K:bass] z!mp! [C,C] !>![CF]4 | %38
 z!mp! [C,C] !>![CF]4 | z [C,C] !>![CF]4 | z [C,C] !>![CF]4 | z [C,C] !>![CF]4 | z [C,C] !>![CF]4 | %43
 z [C,C] !>![CF]4 | z [C,C] !>![CF]4 | z [C,C] !>![CF]4 | z [C,C] !>![CF]4 | z [C,C] !>![CF]4 | %48
 z [C,C] !>![CF]4 | z [C,C] !>![CF]4 | z [C,C] !>![CF]4 |[K:F#] z6 | z6 | z6 | z6 | z6 | z6 | z6 | %58
 z6 | z6 | z6 |[K:treble] z!mf! [FA] ([Ac]2 [GB][FA]) | ([Ac]2 [GB][FA]) [GB]2 | %63
 z [GB] ([Bd]2 [Ac][^^G^B]) | ([Bd]2 [Ac][^^G^B]) [Ac]2 | z [Ac] ([fa]2 [eg][df]) | %66
 [ce] [eg]2 ([GB]2 [eg]) | z [GB] ([eg]2 [df][ce]) | [Bd] [df]2 ([FA]2 [Ac]) | z z z2 z2 | z6 | %71
 z6 | z6 | z6 | z6 | z6 | z6 | z!f! [A,FA] ([CAc]2 [B,GB][A,FA]) | ([CAc]2 [B,GB][A,FA]) [B,GB]2 | %79
 z [B,GB] ([DBd]2 [CAc][^B,^^G^B]) | ([DBd]2 [CAc][^B,^^G^B]) [CAc]2 | %81
 z [CAc] ([Afa]2 [Geg][Fdf]) | [Ece] [Geg]2 ([B,GB]2 [Geg]) | z [B,GB] ([Geg]2 [Fdf][Ece]) | %84
 [DBd] [Fdf]2 ([A,FA]2 [CAc]) | [F,B,DF]!f!F/>F/ F/>F/F/>F/ F/>(G/F/>)G/ | %86
!f! A/>(C/D/>)(E/ F/>)(G/A/>)(B/ c/>)(d/e/>)f/ | [F,B,DF]!f!F/>F/ F/>F/F/>F/ F/>(G/F/>)G/ | %88
!f! A/>(C/D/>)(E/ F/>)(G/A/>)(B/ c/>)(d/e/>)f/ |!p! !//-!D3 F3 | !//-!A,3 F3 | !//-!G,3 B,3 | %92
 [F,F].[A,CF] .[A,CF].[A,CF] .[A,CF].[A,CF] |!p! !//-!D3 F3 | !//-!A,3 F3 | !//-!G,3 B,3 | %96
 [F,F].[A,CF] .[A,CF].[A,CF] .[A,CF].[A,CF] | [FB][G=d] [Ac][Gd] [Ac][Gd] | %98
 [Ac].[A,CF] .[A,CF].[A,CF] .[A,CF].[A,CF] | [FB][G=d] [Ac][Gd] [Ac][Gd] | %100
 [Ac].[A,CF] .[A,CF].[A,CF] .[A,CF].[A,CF] | [FB][G=d] [Ac][Gd] [Ac][Gd] | %102
 [Ac][G=d] [Ac][Gd] [Ac][Gd] | !/![Ac]6 | [Ac][Ac] z2 z2 |] %105
V:4
[K:C]!ff!!>(! E(3E/E/E/ EE EE | E(3E/E/E/ EE EE!>)! |!p! E(3E/E/E/ EE EE | E(3E/E/E/ EE EE | %4
 E(3E/E/E/ EE EE | E(3E/E/E/ EE EE | E(3E/E/E/ EE EE | E(3E/E/E/ EE EE | E(3E/E/E/ EE EE | %9
 E(3E/E/E/ EE EE | E(3E/E/E/ EE EE | E(3E/E/E/ EE EE | E(3E/E/E/ EE EE | E(3E/E/E/ EE EE | %14
 E(3E/E/E/ EE EE | E(3E/E/E/ EE EE | z6 | z6 | z6 | z6 | z6 | z6 | z6 | z6 | z6 | z6 | z6 | z6 | %28
 z6 | z6 | z6 | z6 | z6 | z6 | z6 | z6 | z6 |!mp! !>!E(3E/E/E/ EE EE | E(3E/E/E/ EE EE | %39
!p! E(3E/E/E/ EE EE | E(3E/E/E/ EE EE | E(3E/E/E/ EE EE | E(3E/E/E/ EE EE | E(3E/E/E/ EE EE | %44
 E(3E/E/E/ EE EE | E(3E/E/E/ EE EE | E(3E/E/E/ EE EE | E(3E/E/E/ EE EE | E(3E/E/E/ EE EE | %49
 E(3E/E/E/ EE EE | E(3E/E/E/ EE EE |!mp! E z2 z E z | E z2 z E z | E z2 z E z | E z2 z E z | %55
 E z2 z E z | E z2 z E z | E z2 z E z | E z2 z E z | E z2 z E z | E z2 z E z | E(3E/E/E/ E z E z | %62
 E(3E/E/E/ E z E z | E(3E/E/E/ E z E z | E(3E/E/E/ E z E z | E(3E/E/E/ E z E z | %66
 E(3E/E/E/ E z E z | E(3E/E/E/ E z E z | E(3E/E/E/ E z E z | E(3E/E/E/ E z E z | %70
 E(3E/E/E/ E z E z | E(3E/E/E/ E z E z | E(3E/E/E/ E z E z | E(3E/E/E/ E z E z | %74
 E(3E/E/E/ E z E z | E(3E/E/E/ E z E z | E(3E/E/E/ E z E z | E(3E/E/E/ E z E z | %78
 E(3E/E/E/ E z E z | E(3E/E/E/ E z E z | E(3E/E/E/ E z E z | E(3E/E/E/ E z E z | %82
 E(3E/E/E/ E z E z | E(3E/E/E/ E z E z | E(3E/E/E/ E z E z |!ff! E z z2 z2 | z6 |!ff! E z z2 z2 | %88
 z6 | z6 | z6 | z6 | z6 | z6 | z6 | z6 | z6 |!ff! EE EE EE | E z z2 z2 | EE EE EE | E z z2 z2 | %101
 E(3E/E/E/ E(3E/E/E/ E(3E/E/E/ | E(3E/E/E/ E(3E/E/E/ E(3E/E/E/ | !//!E6 | %104
 !/!E!/!E (5:4:5E/4E/4E/4E/4E/4E z2 |] %105
V:5
[K:C] z6 | z6 | z6 | z6 | z6 | z6 | z6 | z6 | z6 | z6 | z6 | z6 | z6 | z6 | z6 | z6 | %16
!pp! E(3E/E/E/ EE EE | E(3E/E/E/ EE EE | E(3E/E/E/ EE EE | E(3E/E/E/ EE EE | E(3E/E/E/ EE EE | %21
 E(3E/E/E/ EE EE | E(3E/E/E/ EE EE | E(3E/E/E/ EE EE | E(3E/E/E/ EE EE | E(3E/E/E/ EE EE | %26
 E(3E/E/E/ EE EE | E(3E/E/E/ EE EE | E(3E/E/E/ EE EE | E(3E/E/E/ EE EE | E(3E/E/E/ EE EE | %31
 E(3E/E/E/ EE EE | E(3E/E/E/ EE EE | E(3E/E/E/ EE EE | E(3E/E/E/ EE EE | E(3E/E/E/ EE EE | %36
 E(3E/E/E/ EE EE | z6 | z6 | z6 | z6 | z6 | z6 | z6 | z6 | z6 | z6 | z6 | z6 | z6 | z6 | %51
 z2 E z z2 | z2 E z z2 | z2 E z z2 | z2 E z z2 | z2 E z z2 | z2 E z z2 | z2 E z z2 | z2 E z z2 | %59
 z2 E z z2 | z2 E z z2 | z2 EE z E | z2 EE z E | z2 EE z E | z2 EE z E | z2 EE z E | z2 EE z E | %67
 z2 EE z E | z2 EE z E | z2 EE z E | z2 EE z E | z2 EE z E | z2 EE z E | z2 EE z E | z2 EE z E | %75
 z2 EE z E | z2 EE z E | z2 EE z E | z2 EE z E | z2 EE z E | z2 EE z E | z2 EE z E | z2 EE z E | %83
 z2 EE z E | z2 EE z E |!ff! E z z2 z2 | z6 |!ff! E z z2 z2 | z6 |!p! EE/E/ EE/E/ EE/E/ | %90
 EE/E/ EE/E/ EE/E/ | EE/E/ EE/E/ EE/E/ | z6 |!p! EE/E/ EE/E/ EE/E/ | EE/E/ EE/E/ EE/E/ | %95
 EE/E/ EE/E/ EE/E/ | z6 |!mf! EE EE EE | E z z2 z2 | EE EE EE | E z z2 z2 | !//!E6 | !//!E6 | %103
 !//!E6 | !/!E!/!E (5:4:5E/4E/4E/4E/4E/4E z2 |] %105

